tools/download-figma-icons/icons/outlined-medium/surf-fon.svg

<svg width="24" height="24" viewBox="0 0 24 24" fill="none" xmlns="http://www.w3.org/2000/svg">
<path d="M22.4998 10.4999H21.7498V4.02223C21.7498 3.04499 20.954 2.25 19.9776 2.25H4.02221C3.04497 2.25 2.24998 3.04574 2.24998 4.02223V14.2499H0.749993C0.335247 14.2499 0 14.5851 0 14.9999V16.1736C0 17.5941 1.15574 18.7498 2.57622 18.7498H16.4998V20.9998C16.4998 21.8271 17.1726 22.4998 17.9998 22.4998H22.4998C23.327 22.4998 23.9998 21.8271 23.9998 20.9998V11.9999C23.9998 11.1727 23.327 10.4999 22.4998 10.4999ZM3.74996 4.02223C3.74996 3.87223 3.87221 3.74999 4.02221 3.74999H19.9768C20.1268 3.74999 20.2491 3.87223 20.2491 4.02223V10.4999H17.9991C17.1718 10.4999 16.4991 11.1727 16.4991 11.9999V14.2499H3.74996V4.02223ZM2.57622 17.2499C1.98298 17.2499 1.49999 16.7669 1.49999 16.1736V15.7499H9.43941L9.96965 16.2801C10.1107 16.4211 10.3004 16.4999 10.4999 16.4999H13.4999C13.6994 16.4999 13.8899 16.4211 14.0301 16.2801L14.5604 15.7499H16.4998V17.2499H2.57622ZM17.9998 20.9998V11.9999H22.4998L22.5013 20.9998H17.9998Z" fill="black"/>
</svg>

<svg xmlns="http://www.w3.org/2000/svg" width="24" height="24" fill="none" viewBox="0 0 24 24"><path fill="currentColor" d="M22.5 10.5h-.75V4.022c0-.977-.796-1.772-1.772-1.772H4.022c-.977 0-1.772.796-1.772 1.772V14.25H.75A.75.75 0 0 0 0 15v1.174a2.58 2.58 0 0 0 2.576 2.576H16.5V21c0 .827.673 1.5 1.5 1.5h4.5c.827 0 1.5-.673 1.5-1.5v-9c0-.827-.673-1.5-1.5-1.5M3.75 4.022c0-.15.122-.272.272-.272h15.955c.15 0 .272.122.272.272V10.5H18c-.827 0-1.5.673-1.5 1.5v2.25H3.75zM2.576 17.25A1.08 1.08 0 0 1 1.5 16.174v-.424h7.94l.53.53c.14.141.33.22.53.22h3c.2 0 .39-.079.53-.22l.53-.53h1.94v1.5zM18 21v-9h4.5l.001 9z"/></svg>
